src/assets/bold/lm-pdf-bold.svg

<svg width="24" height="24" viewBox="0 0 24 24" fill="none" xmlns="http://www.w3.org/2000/svg" fill="currentColor">
<path d="M2.25 8C2.25 7.58579 2.58579 7.25 3 7.25H5C5.72935 7.25 6.42882 7.53973 6.94454 8.05546C7.46027 8.57118 7.75 9.27065 7.75 10C7.75 10.7293 7.46027 11.4288 6.94454 11.9445C6.42882 12.4603 5.72935 12.75 5 12.75H3.75V16C3.75 16.4142 3.41421 16.75 3 16.75C2.58579 16.75 2.25 16.4142 2.25 16V8ZM3.75 11.25H5C5.33152 11.25 5.64946 11.1183 5.88388 10.8839C6.1183 10.6495 6.25 10.3315 6.25 10C6.25 9.66848 6.1183 9.35054 5.88388 9.11612C5.64946 8.8817 5.33152 8.75 5 8.75H3.75V11.25ZM9.25 8C9.25 7.58579 9.58579 7.25 10 7.25H12C12.7293 7.25 13.4288 7.53973 13.9445 8.05546C14.4603 8.57118 14.75 9.27065 14.75 10V14C14.75 14.7293 14.4603 15.4288 13.9445 15.9445C13.4288 16.4603 12.7293 16.75 12 16.75H10C9.58579 16.75 9.25 16.4142 9.25 16V8ZM10.75 8.75V15.25H12C12.3315 15.25 12.6495 15.1183 12.8839 14.8839C13.1183 14.6495 13.25 14.3315 13.25 14V10C13.25 9.66848 13.1183 9.35054 12.8839 9.11612C12.6495 8.8817 12.3315 8.75 12 8.75H10.75ZM16.25 8C16.25 7.58579 16.5858 7.25 17 7.25H21C21.4142 7.25 21.75 7.58579 21.75 8C21.75 8.41421 21.4142 8.75 21 8.75H17.75V11.25H20C20.4142 11.25 20.75 11.5858 20.75 12C20.75 12.4142 20.4142 12.75 20 12.75H17.75V16C17.75 16.4142 17.4142 16.75 17 16.75C16.5858 16.75 16.25 16.4142 16.25 16V8Z" fill="black"/>
</svg>

<svg xmlns="http://www.w3.org/2000/svg" width="24" height="24" fill="currentColor" viewBox="0 0 24 24">
  <path d="M2.25 8A.75.75 0 0 1 3 7.25h2a2.75 2.75 0 1 1 0 5.5H3.75V16a.75.75 0 0 1-1.5 0V8Zm1.5 3.25H5a1.25 1.25 0 0 0 0-2.5H3.75v2.5ZM9.25 8a.75.75 0 0 1 .75-.75h2A2.75 2.75 0 0 1 14.75 10v4A2.75 2.75 0 0 1 12 16.75h-2a.75.75 0 0 1-.75-.75V8Zm1.5.75v6.5H12A1.25 1.25 0 0 0 13.25 14v-4A1.25 1.25 0 0 0 12 8.75h-1.25Zm5.5-.75a.75.75 0 0 1 .75-.75h4a.75.75 0 0 1 0 1.5h-3.25v2.5H20a.75.75 0 0 1 0 1.5h-2.25V16a.75.75 0 0 1-1.5 0V8Z"/>
</svg>
